public/support/phone.svg

<svg width="44" height="44" viewBox="0 0 44 44" fill="none" xmlns="http://www.w3.org/2000/svg">
<path d="M37.9466 27.8662L29.8306 24.2345C29.516 24.0983 29.1724 24.0427 28.8309 24.0727C28.4894 24.1027 28.1608 24.2174 27.8747 24.4063C27.8518 24.4208 27.83 24.4369 27.8094 24.4545L23.5469 28.0879C23.452 28.1458 23.3444 28.1793 23.2334 28.1856C23.1225 28.1919 23.0118 28.1708 22.911 28.124C20.1197 26.7765 17.2305 23.9096 15.883 21.151C15.8353 21.051 15.8132 20.9407 15.8186 20.83C15.824 20.7193 15.8567 20.6117 15.9139 20.5168L19.5577 16.1838C19.5749 16.1632 19.5903 16.1409 19.6058 16.1185C19.7942 15.8329 19.9085 15.5049 19.9385 15.164C19.9685 14.8232 19.9132 14.4802 19.7777 14.166L16.1391 6.06385C15.9634 5.65349 15.6594 5.31119 15.2726 5.08836C14.8858 4.86553 14.4372 4.7742 13.9941 4.82807C11.8312 5.11324 9.846 6.17602 8.4094 7.81789C6.9728 9.45977 6.183 11.5685 6.18752 13.7501C6.18752 27.0188 16.9813 37.8126 30.25 37.8126C32.4317 37.8171 34.5403 37.0273 36.1822 35.5907C37.8241 34.1541 38.8869 32.169 39.1721 30.006C39.2255 29.5649 39.1351 29.1184 38.9143 28.7328C38.6935 28.3472 38.3541 28.0433 37.9466 27.8662ZM37.8125 29.8342C37.5698 31.6659 36.6683 33.3466 35.2764 34.5619C33.8846 35.7772 32.0978 36.444 30.25 36.4376C17.741 36.4376 7.56252 26.2592 7.56252 13.7501C7.55612 11.9023 8.22291 10.1155 9.43824 8.72369C10.6536 7.33186 12.3342 6.43031 14.166 6.1876C14.1934 6.18589 14.221 6.18589 14.2485 6.1876C14.3841 6.18875 14.5163 6.23 14.6286 6.30616C14.7408 6.38231 14.828 6.48996 14.8792 6.61557L18.5075 14.7178C18.5499 14.8168 18.5683 14.9244 18.5615 15.0318C18.5546 15.1393 18.5226 15.2437 18.468 15.3365L14.826 19.6678C14.8088 19.6901 14.7916 19.7107 14.7761 19.7348C14.5821 20.0315 14.4678 20.3732 14.4443 20.727C14.4208 21.0807 14.4889 21.4346 14.6421 21.7543C16.1356 24.812 19.2156 27.8696 22.3077 29.3632C22.6296 29.5153 22.9855 29.5815 23.3406 29.5553C23.6957 29.5291 24.038 29.4114 24.3341 29.2137L24.3977 29.1656L28.6653 25.5356C28.7566 25.4798 28.8599 25.4465 28.9665 25.4384C29.0732 25.4304 29.1803 25.4478 29.2789 25.4892L37.3931 29.126C37.5301 29.183 37.6449 29.2828 37.7205 29.4104C37.7961 29.538 37.8284 29.6867 37.8125 29.8342Z" fill="white"/>
</svg>

<svg xmlns="http://www.w3.org/2000/svg" width="44" height="44" fill="none"><path fill="#fff" d="m37.95 27.87-8.12-3.64a2.06 2.06 0 0 0-2.02.22l-4.26 3.64a.68.68 0 0 1-.64.03 16.56 16.56 0 0 1-7.03-6.97.67.67 0 0 1 .03-.63l3.65-4.34.05-.06a2.06 2.06 0 0 0 .17-1.95l-3.64-8.1a2.06 2.06 0 0 0-2.15-1.24 8.98 8.98 0 0 0-7.8 8.92 24.09 24.09 0 0 0 24.06 24.06 8.98 8.98 0 0 0 8.92-7.8 2.06 2.06 0 0 0-1.22-2.14Zm-.14 1.96a7.6 7.6 0 0 1-7.56 6.6A22.71 22.71 0 0 1 7.56 13.76a7.6 7.6 0 0 1 6.69-7.56.69.69 0 0 1 .63.43l3.63 8.1a.69.69 0 0 1-.04.62l-3.64 4.33-.05.06a2.06 2.06 0 0 0-.14 2.02 17.8 17.8 0 0 0 7.67 7.61 2.06 2.06 0 0 0 2.02-.15l.07-.04 4.27-3.63a.68.68 0 0 1 .6-.05l8.12 3.64a.69.69 0 0 1 .42.7Z"/></svg>
